X: 1
T: Toss the Feathers
R: reel
Z: 1997 by John Chambers <jc:trillian.mit.edu>
N:
N: Silly Wizard "Live Wizardry" CD
M: C|
L: 1/8
K: Edor
|: "Em"EB~B2 dB~B2 |    EBBA  "D"FDFA  | "Em"BE~E2   B3c  |1 "D"dffe     dBAF :|2 "D"dffe dBA2 ||
[| "Em"Beef ~e2de  | "D"fede "Em"fe~e2 |  {g}febe {g}febe |  "D"fede "Em"fe~e2 |
|  "Em"Beef ~e2de  | "D"fede     fa~a2 |  "G"b2bf "D"a2af | "Em"egfe  "D"dBAF  |] "Em"HE4 |]
